public/images/right-down-fill.svg

<?xml version="1.0" encoding="UTF-8" standalone="no"?>
<svg viewBox="-30 -30 118 118" version="1.1" xmlns="http://www.w3.org/2000/svg" xmlns:xlink="http://www.w3.org/1999/xlink">
    <g id="Page-1" stroke="none" stroke-width="1" fill="none" fill-rule="evenodd">
        <path d="M47.45,36.45 L47.45,36.6 C47.4833333,38.0333333 48,39.25 49,40.25 C50.0666667,41.3166667 51.35,41.85 52.85,41.85 C54.35,41.85 55.6166667,41.3166667 56.65,40.25 C57.6833333,39.25 58.2166667,38.0333333 58.25,36.6 L58.25,36.45 C58.25,34.95 57.7166667,33.6666667 56.65,32.6 C55.6166667,31.5666667 54.35,31.05 52.85,31.05 C51.35,31.05 50.0666667,31.5666667 49,32.6 C47.9666667,33.6666667 47.45,34.95 47.45,36.45 M34.6,32.2 C33.5,33.3 32.95,34.6333333 32.95,36.2 C32.95,36.7 33,37.1666667 33.1,37.6 C33.3333333,38.5666667 33.8333333,39.4333333 34.6,40.2 C35.7,41.3 37.0333333,41.85 38.6,41.85 C40.1666667,41.85 41.5,41.3 42.6,40.2 C43.3666667,39.4333333 43.8666667,38.5666667 44.1,37.6 L44.25,36.2 C44.25,34.6333333 43.7,33.3 42.6,32.2 C41.5,31.1 40.1666667,30.55 38.6,30.55 C37.0333333,30.55 35.7,31.1 34.6,32.2 M72,16 L72,42.7 L68.15,42.7 L67.7,42.75 C55.8666667,43.4166667 48.25,48.55 44.85,58.15 L44.9,58.05 C43.3333333,61.7166667 42.5666667,66.1833333 42.6,71.45 L42.6,72 L17.7,72 L17.25,72 L16,72 L16,71.95 L16,62.85 C17.3666667,32.35 34.1166667,16.7333333 66.25,16 L67.85,16 L72,16 M33.95,51.85 C33.95,51.0833333 33.6833333,50.4333333 33.15,49.9 C32.6166667,49.3666667 31.9666667,49.1 31.2,49.1 C30.4333333,49.1 29.7833333,49.3666667 29.25,49.9 C28.7166667,50.4333333 28.45,51.0833333 28.45,51.85 C28.45,52.6166667 28.7166667,53.2666667 29.25,53.8 C29.7833333,54.3333333 30.4333333,54.6 31.2,54.6 C31.9666667,54.6 32.6166667,54.3333333 33.15,53.8 C33.6833333,53.2666667 33.95,52.6166667 33.95,51.85" id="Shape" fill="#1EA7E1"></path>
        <path d="M33.95,51.85 C33.95,52.6166667 33.6833333,53.2666667 33.15,53.8 C32.6166667,54.3333333 31.9666667,54.6 31.2,54.6 C30.4333333,54.6 29.7833333,54.3333333 29.25,53.8 C28.7166667,53.2666667 28.45,52.6166667 28.45,51.85 C28.45,51.0833333 28.7166667,50.4333333 29.25,49.9 C29.7833333,49.3666667 30.4333333,49.1 31.2,49.1 C31.9666667,49.1 32.6166667,49.3666667 33.15,49.9 C33.6833333,50.4333333 33.95,51.0833333 33.95,51.85 M34.6,32.2 C35.7,31.1 37.0333333,30.55 38.6,30.55 C40.1666667,30.55 41.5,31.1 42.6,32.2 C43.7,33.3 44.25,34.6333333 44.25,36.2 L44.1,37.6 C43.8666667,38.5666667 43.3666667,39.4333333 42.6,40.2 C41.5,41.3 40.1666667,41.85 38.6,41.85 C37.0333333,41.85 35.7,41.3 34.6,40.2 C33.8333333,39.4333333 33.3333333,38.5666667 33.1,37.6 C33,37.1666667 32.95,36.7 32.95,36.2 C32.95,34.6333333 33.5,33.3 34.6,32.2 M47.45,36.45 C47.45,34.95 47.9666667,33.6666667 49,32.6 C50.0666667,31.5666667 51.35,31.05 52.85,31.05 C54.35,31.05 55.6166667,31.5666667 56.65,32.6 C57.7166667,33.6666667 58.25,34.95 58.25,36.45 L58.25,36.6 C58.2166667,38.0333333 57.6833333,39.25 56.65,40.25 C55.6166667,41.3166667 54.35,41.85 52.85,41.85 C51.35,41.85 50.0666667,41.3166667 49,40.25 C48,39.25 47.4833333,38.0333333 47.45,36.6 L47.45,36.45" id="Shape" fill="#2CB8F3"></path>
    </g>
</svg>

<svg viewBox="-30 -30 118 118" xmlns="http://www.w3.org/2000/svg"><g fill="none" fill-rule="evenodd"><path d="M47.45 36.45v.15c.033 1.433.55 2.65 1.55 3.65 1.067 1.067 2.35 1.6 3.85 1.6s2.767-.533 3.8-1.6c1.033-1 1.567-2.217 1.6-3.65v-.15c0-1.5-.533-2.783-1.6-3.85-1.033-1.033-2.3-1.55-3.8-1.55s-2.783.517-3.85 1.55c-1.033 1.067-1.55 2.35-1.55 3.85M34.6 32.2c-1.1 1.1-1.65 2.433-1.65 4 0 .5.05.967.15 1.4.233.967.733 1.833 1.5 2.6 1.1 1.1 2.433 1.65 4 1.65 1.567 0 2.9-.55 4-1.65.767-.767 1.267-1.633 1.5-2.6l.15-1.4c0-1.567-.55-2.9-1.65-4-1.1-1.1-2.433-1.65-4-1.65-1.567 0-2.9.55-4 1.65M72 16v26.7h-3.85l-.45.05c-11.833.667-19.45 5.8-22.85 15.4l.05-.1c-1.567 3.667-2.333 8.133-2.3 13.4V72H16v-9.15C17.367 32.35 34.117 16.733 66.25 16H72M33.95 51.85c0-.767-.267-1.417-.8-1.95-.533-.533-1.183-.8-1.95-.8-.767 0-1.417.267-1.95.8-.533.533-.8 1.183-.8 1.95 0 .767.267 1.417.8 1.95.533.533 1.183.8 1.95.8.767 0 1.417-.267 1.95-.8.533-.533.8-1.183.8-1.95" fill="#1EA7E1"/><path d="M33.95 51.85c0 .767-.267 1.417-.8 1.95-.533.533-1.183.8-1.95.8-.767 0-1.417-.267-1.95-.8-.533-.533-.8-1.183-.8-1.95 0-.767.267-1.417.8-1.95.533-.533 1.183-.8 1.95-.8.767 0 1.417.267 1.95.8.533.533.8 1.183.8 1.95m.65-19.65c1.1-1.1 2.433-1.65 4-1.65 1.567 0 2.9.55 4 1.65 1.1 1.1 1.65 2.433 1.65 4l-.15 1.4c-.233.967-.733 1.833-1.5 2.6-1.1 1.1-2.433 1.65-4 1.65-1.567 0-2.9-.55-4-1.65-.767-.767-1.267-1.633-1.5-2.6-.1-.433-.15-.9-.15-1.4 0-1.567.55-2.9 1.65-4m12.85 4.25c0-1.5.517-2.783 1.55-3.85 1.067-1.033 2.35-1.55 3.85-1.55s2.767.517 3.8 1.55c1.067 1.067 1.6 2.35 1.6 3.85v.15c-.033 1.433-.567 2.65-1.6 3.65-1.033 1.067-2.3 1.6-3.8 1.6s-2.783-.533-3.85-1.6c-1-1-1.517-2.217-1.55-3.65v-.15" fill="#2CB8F3"/></g></svg>
